build/assets/common.blocks/home/home__MUVX-logo.svg

<svg width="225" height="237" viewBox="0 0 637 670" version="1.1" xmlns="http://www.w3.org/2000/svg"
     xmlns:xlink="http://www.w3.org/1999/xlink">
    <title>MUVX</title>
    <g id="Canvas" transform="translate(680 68)">
        <g id="MUVX">
            <g id="MUVX__logo-caption">
                <use xlink:href="#path0_fill" transform="translate(-689 433)" fill="#fff"/>
            </g>
            <g id="MUVX__logo-image">
                <g id="part_left_2">
                    <use xlink:href="#path1_fill" transform="translate(-546 202)" fill="#fff"/>
                </g>
                <g id="part_left_1">
                    <use xlink:href="#path2_fill" transform="translate(-546 122)" fill="#fff"/>
                </g>
                <g id="part_bottom">
                    <use xlink:href="#path3_fill" transform="translate(-466 322)" fill="#fff"/>
                </g>
                <g id="part_right_2">
                    <use xlink:href="#path1_fill" transform="matrix(-1 0 0 1 -186 202)" fill="#fff"/>
                </g>
                <g id="part_right_1">
                    <use xlink:href="#path2_fill" transform="matrix(-1 0 0 1 -186 122)" fill="#fff"/>
                </g>
                <g id="part-top-2">
                    <use xlink:href="#path4_fill" transform="translate(-546 32)" fill="#fff"/>
                </g>
                <g id="part_middle_2">
                    <use xlink:href="#path5_fill" transform="matrix(1 0 0 -1 -466 342)" fill="#fff"/>
                </g>
                <g id="part_middle_1">
                    <use xlink:href="#path5_fill" transform="translate(-466 180)" fill="#fff"/>
                </g>
                <g id="part_top">
                    <use xlink:href="#path6_fill" transform="translate(-546 -68)" fill="#fff"/>
                </g>
            </g>
        </g>
    </g>
    <defs>
        <path id="path0_fill"
              d="M 50.1855 39.0312L 78.75 128.064L 107.227 39.0312L 147.832 39.0312L 147.832 167L 116.895 167L 116.895 137.117L 119.883 75.9453L 88.9453 167L 68.5547 167L 37.5293 75.8574L 40.5176 137.117L 40.5176 167L 9.66797 167L 9.66797 39.0312L 50.1855 39.0312ZM 312.715 39.0312L 312.715 122.791C 312.715 132.283 310.693 140.516 306.65 147.488C 302.607 154.402 296.807 159.676 289.248 163.309C 281.689 166.941 272.754 168.758 262.441 168.758C 246.855 168.758 234.58 164.715 225.615 156.629C 216.65 148.543 212.08 137.469 211.904 123.406L 211.904 39.0312L 242.93 39.0312L 242.93 124.021C 243.281 138.025 249.785 145.027 262.441 145.027C 268.828 145.027 273.662 143.27 276.943 139.754C 280.225 136.238 281.865 130.525 281.865 122.615L 281.865 39.0312L 312.715 39.0312ZM 426.533 132.195L 452.021 39.0312L 486.475 39.0312L 443.408 167L 409.658 167L 366.943 39.0312L 401.133 39.0312L 426.533 132.195ZM 588.428 81.5703L 609.346 39.0312L 644.59 39.0312L 608.818 102.488L 645.557 167L 609.961 167L 588.428 123.67L 566.895 167L 531.387 167L 568.037 102.488L 532.354 39.0312L 567.51 39.0312L 588.428 81.5703Z"/>
        <path id="path1_fill" d="M 0 0L 0 110L 70 145L 70 35L 0 0Z"/>
        <path id="path2_fill" d="M 0 0L 0 80L 70 115L 70 35L 0 0Z"/>
        <path id="path3_fill" d="M 0 30L 60 0L 100 20L 140 0L 200 30L 100 80L 0 30Z"/>
        <path id="path4_fill" d="M 0 90L 0 0L 180 90L 360 0L 360 90L 180 180L 0 90Z"/>
        <path id="path5_fill" d="M 0 60L 0 0L 100 50L 200 0L 200 60L 100 110L 0 60Z"/>
        <path id="path6_fill" d="M 0 90L 180 0L 360 90L 180 180L 0 90Z"/>
    </defs>
    <style>
        svg {
        --animation-delay: 0.6;
        --animation-duration: 6;
        }

        @supports (animation-duration: calc(1 * 1s)) {
        path {
        opacity: 0;
        stroke: rgba(255, 255, 255, 1);
        stroke-width: 7;
        stroke-dasharray: 1200;
        stroke-dashoffset: 1200;
        animation-name: draw;
        animation-duration: calc(var(--animation-delay) * var(--animation-duration) * 1s);
        animation-fill-mode: forwards;
        }
        }

        @keyframes draw {
        0% {
        opacity: 0;
        fill: rgba(0, 0, 0, 0);
        stroke: rgba(255, 255, 255, 1);
        }
        66% {
        opacity: 1;
        stroke-dashoffset: 0;
        fill: rgba(0, 0, 0, 0);
        stroke: rgba(255, 255, 255, 1);
        }
        100% {
        opacity: 1;
        stroke: rgba(255, 255, 255, 0);
        stroke-dashoffset: 0;
        }
        }
    </style>
</svg>

<svg width="225" height="237" viewBox="0 0 637 670" xmlns="http://www.w3.org/2000/svg" xmlns:xlink="http://www.w3.org/1999/xlink" style="--animation-delay:0.6;--animation-duration:6"><g id="Canvas" transform="translate(680 68)"><g id="MUVX"><use xlink:href="#path0_fill" transform="translate(-689 433)" fill="#fff" id="MUVX__logo-caption"/><g id="MUVX__logo-image"><use xlink:href="#path1_fill" transform="translate(-546 202)" fill="#fff" id="part_left_2"/><use xlink:href="#path2_fill" transform="translate(-546 122)" fill="#fff" id="part_left_1"/><use xlink:href="#path3_fill" transform="translate(-466 322)" fill="#fff" id="part_bottom"/><use xlink:href="#path1_fill" transform="matrix(-1 0 0 1 -186 202)" fill="#fff" id="part_right_2"/><use xlink:href="#path2_fill" transform="matrix(-1 0 0 1 -186 122)" fill="#fff" id="part_right_1"/><use xlink:href="#path4_fill" transform="translate(-546 32)" fill="#fff" id="part-top-2"/><use xlink:href="#path5_fill" transform="matrix(1 0 0 -1 -466 342)" fill="#fff" id="part_middle_2"/><use xlink:href="#path5_fill" transform="translate(-466 180)" fill="#fff" id="part_middle_1"/><use xlink:href="#path6_fill" transform="translate(-546 -68)" fill="#fff" id="part_top"/></g></g></g><defs><path id="path0_fill" d="M50.185 39.031l28.565 89.033 28.477-89.033h40.605V167h-30.937v-29.883l2.988-61.172L88.945 167h-20.39L37.529 75.857l2.989 61.26V167H9.668V39.031h40.517zm262.53 0v83.76c0 9.492-2.022 17.725-6.065 24.697-4.043 6.914-9.843 12.188-17.402 15.821-7.559 3.632-16.494 5.449-26.807 5.449-15.586 0-27.861-4.043-36.826-12.129-8.965-8.086-13.535-19.16-13.711-33.223V39.031h31.026v84.99c.351 14.004 6.855 21.006 19.511 21.006 6.387 0 11.221-1.757 14.502-5.273 3.282-3.516 4.922-9.229 4.922-17.139V39.031h30.85zm113.818 93.164l25.488-93.164h34.454L443.408 167h-33.75L366.943 39.031h34.19l25.4 93.164zM588.428 81.57l20.918-42.539h35.244l-35.772 63.457L645.557 167h-35.596l-21.533-43.33L566.895 167h-35.508l36.65-64.512-35.683-63.457h35.156l20.918 42.54z"/><path id="path1_fill" d="M0 0v110l70 35V35L0 0z"/><path id="path2_fill" d="M0 0v80l70 35V35L0 0z"/><path id="path3_fill" d="M0 30L60 0l40 20 40-20 60 30-100 50L0 30z"/><path id="path4_fill" d="M0 90V0l180 90L360 0v90l-180 90L0 90z"/><path id="path5_fill" d="M0 60V0l100 50L200 0v60l-100 50L0 60z"/><path id="path6_fill" d="M0 90L180 0l180 90-180 90L0 90z"/></defs><style>@keyframes draw{0%{opacity:0;fill:transparent;stroke:#fff}66%{opacity:1;stroke-dashoffset:0;fill:transparent;stroke:#fff}to{opacity:1;stroke:transparent;stroke-dashoffset:0}}@supports (animation-duration:calc(1*1s)){path{opacity:0;stroke:#fff;stroke-width:7;stroke-dasharray:1200;stroke-dashoffset:1200;animation-name:draw;animation-duration:calc(var(--animation-delay)*var(--animation-duration)*1s);animation-fill-mode:forwards}}</style></svg>
